X: 6312
T: Carrickfergus
R: reel
M: 4/4
K: Dmajor
z2"D"d2 d2>c2|"em"B4 E4-|"A7"E2F2 G2A2|"D"F2>E2 D4-|
"bm"D2D2 E2F2|"em"G2>F2E4-|"A7"E2D2 D2>E2|"D"D8:|
z2 A2 d2e2|"D"f8-|"bm"fdef "em"g2f2|"A7"e2>c2 A4-|
A2A2 d2e2|"D"f8-|"bm"fdef "em"g2f2|"A7"e8|
z2d2 d2>c2|"em"B4 E4-|"A7"E2F2 G2A2|"D"F2>E2 D4-|
"bm"D2D2 E2F2|"em"G2>F2E4-|"A7"E2D2 D2>E2|"D"D8||

